X:827
T:Cambeltown Kiltie Ball, The 
C:Joe Buchanan's Scottish Tome - Page 401.1
I:401 1
R:Strathspey
Z:Carl Allison
L:1/8
M:4/4
K:A
"A"A>BA>B (c<e) e2 | "Bm"f>gf>e "D"(f<a) a2 |
"A"A>BA>B c<ee>c | "A"e>fe>c "E7"B2 B>c |
"A"A>BA>B (c<e) e2 | "Bm"f>gf>e "D"f<aa>e |
"A"a>gf>e "D"f>ga>f | "A"e>c "E7"B<c "A"A2 A :|
"A"e | a2 a>e "D"f2 (f<a) | "A"e>f"E7"e>B "A"(c<e) e2 |
"E#m"a2 a>f "C#m"g>ag>e | "B7"f>ga>f "E7"e>dc>B |
"A"A>BA>B "D"(c<e) e2 | "D"d>cd>e f<aa>e |
"A"a>gf>e "D"f>ga>f | "A"e>c "E7"B<c "A"(A2 A) :|

